src/assets/duotone/DirectboxDefault.svg

<svg width="24" height="24" viewBox="0 0 24 24"  xmlns="http://www.w3.org/2000/svg">
<path d="M18.6902 11.5298C18.1202 11.3798 17.4502 11.2998 16.6502 11.2998C15.5402 11.2998 15.1302 11.5698 14.5602 11.9998C14.5302 12.0198 14.5002 12.0498 14.4702 12.0798L13.5202 13.0898C12.7302 13.9398 11.2802 13.9398 10.4802 13.0898L9.53018 12.0898C9.50017 12.0498 9.47018 12.0198 9.44018 11.9998C8.86018 11.5698 8.45018 11.2998 7.35018 11.2998C6.55018 11.2998 5.88018 11.3698 5.31018 11.5298C2.93018 12.1698 2.93018 14.0598 2.93018 15.7198V16.6498C2.93018 19.1598 2.93018 21.9998 8.28018 21.9998H15.7202C19.2702 21.9998 21.0702 20.1998 21.0702 16.6498V15.7198C21.0702 14.0598 21.0702 12.1698 18.6902 11.5298Z" />
<path opacity="0.4" d="M14.79 2H9.21004C4.79004 2 4.79004 4.35 4.79004 6.42V12.21C4.79004 12.43 4.89004 12.63 5.06004 12.76C5.23004 12.89 5.46004 12.94 5.67004 12.88C6.12004 12.76 6.68004 12.7 7.35004 12.7C8.02004 12.7 8.16004 12.78 8.56004 13.08L9.47004 14.04C10.12 14.74 11.05 15.14 12.01 15.14C12.97 15.14 13.89 14.74 14.55 14.04L15.46 13.08C15.86 12.78 16 12.7 16.67 12.7C17.34 12.7 17.9 12.76 18.35 12.88C18.56 12.94 18.78 12.89 18.96 12.76C19.13 12.63 19.23 12.42 19.23 12.21V6.42C19.21 4.35 19.21 2 14.79 2Z" />
<path d="M13.55 9.90977H10.45C10.06 9.90977 9.75 9.59977 9.75 9.20977C9.75 8.81977 10.06 8.50977 10.45 8.50977H13.55C13.94 8.50977 14.25 8.81977 14.25 9.20977C14.25 9.58977 13.93 9.90977 13.55 9.90977Z" />
<path d="M14.3302 7.12021H9.67021C9.28021 7.12021 8.97021 6.81022 8.97021 6.42022C8.97021 6.03022 9.28021 5.72021 9.67021 5.72021H14.3202C14.7102 5.72021 15.0202 6.03022 15.0202 6.42022C15.0202 6.80022 14.7102 7.12021 14.3302 7.12021Z" />
</svg>

<?xml version="1.0" encoding="UTF-8"?>
<svg width="24" height="24" viewBox="0 0 24 24" xmlns="http://www.w3.org/2000/svg">
 <path d="m18.69 11.53c-0.57-0.15-1.24-0.23-2.04-0.23-1.11 0-1.52 0.27-2.09 0.7-0.03 0.02-0.06 0.05-0.09 0.08l-0.95 1.01c-0.79 0.85-2.24 0.85-3.04 0l-0.95002-1c-0.03001-0.04-0.06-0.07-0.09-0.09-0.58-0.43-0.99-0.7-2.09-0.7-0.8 0-1.47 0.07-2.04 0.23-2.38 0.64-2.38 2.53-2.38 4.19v0.93c0 2.51 0 5.35 5.35 5.35h7.44c3.55 0 5.35-1.8 5.35-5.35v-0.93c0-1.66 0-3.55-2.38-4.19z"/>
 <path d="m14.79 2h-5.58c-4.42 0-4.42 2.35-4.42 4.42v5.79c0 0.22 0.1 0.42 0.27 0.55s0.4 0.18 0.61 0.12c0.45-0.12 1.01-0.18 1.68-0.18s0.81 0.08 1.21 0.38l0.91 0.96c0.64996 0.7 1.58 1.1 2.54 1.1s1.88-0.4 2.54-1.1l0.91-0.96c0.4-0.3 0.54-0.38 1.21-0.38s1.23 0.06 1.68 0.18c0.21 0.06 0.43 0.01 0.61-0.12 0.17-0.13 0.27-0.34 0.27-0.55v-5.79c-0.02-2.07-0.02-4.42-4.44-4.42z" opacity=".4"/>
 <path d="m13.55 9.9098h-3.1c-0.39 0-0.7-0.31-0.7-0.7s0.31-0.7 0.7-0.7h3.1c0.39 0 0.7 0.31 0.7 0.7 0 0.38-0.32 0.7-0.7 0.7z"/>
 <path d="m14.33 7.1202h-4.66c-0.39 0-0.7-0.30999-0.7-0.69999s0.31-0.70001 0.7-0.70001h4.65c0.39 0 0.7 0.31001 0.7 0.70001 0 0.38-0.31 0.69999-0.69 0.69999z"/>
</svg>
